inst/assets/svg/wi-barometer.svg

<?xml version="1.0" encoding="UTF-8"?>
<svg xmlns="http://www.w3.org/2000/svg" xmlns:xlink="http://www.w3.org/1999/xlink" width="30pt" height="30pt" viewBox="0 0 30 30" version="1.1">
<g id="surface11">
<path style=" stroke:none;fill-rule:nonzero;fill:rgb(0%,0%,0%);fill-opacity:1;" d="M 7.691406 13.199219 C 7.691406 12.210938 7.878906 11.261719 8.269531 10.351563 C 8.660156 9.441406 9.179688 8.671875 9.839844 8.019531 C 10.5 7.371094 11.28125 6.851563 12.179688 6.460938 C 13.078125 6.070313 14.03125 5.878906 15.019531 5.878906 C 16.011719 5.878906 16.960938 6.070313 17.871094 6.460938 C 18.769531 6.851563 19.550781 7.371094 20.199219 8.019531 C 20.851563 8.671875 21.371094 9.449219 21.761719 10.351563 C 22.148438 11.25 22.339844 12.199219 22.339844 13.199219 C 22.339844 14.820313 21.859375 16.261719 20.898438 17.539063 C 19.941406 18.808594 18.699219 19.679688 17.191406 20.148438 L 17.191406 23.441406 L 12.949219 23.441406 L 12.949219 20.191406 C 11.410156 19.738281 10.140625 18.871094 9.160156 17.578125 C 8.179688 16.289063 7.691406 14.828125 7.691406 13.199219 Z M 9.300781 13.199219 C 9.300781 14.75 9.859375 16.078125 10.988281 17.191406 C 12.101563 18.308594 13.441406 18.871094 15.011719 18.871094 C 16.039063 18.871094 17 18.621094 17.871094 18.109375 C 18.75 17.601563 19.441406 16.910156 19.960938 16.039063 C 20.46875 15.171875 20.730469 14.21875 20.730469 13.191406 C 20.730469 12.421875 20.578125 11.691406 20.28125 10.980469 C 19.980469 10.269531 19.570313 9.671875 19.058594 9.160156 C 18.550781 8.648438 17.941406 8.238281 17.230469 7.941406 C 16.519531 7.640625 15.789063 7.488281 15.019531 7.488281 C 14.25 7.488281 13.519531 7.640625 12.808594 7.941406 C 12.101563 8.238281 11.5 8.648438 10.988281 9.160156 C 10.480469 9.671875 10.070313 10.28125 9.769531 10.980469 C 9.449219 11.699219 9.300781 12.429688 9.300781 13.199219 Z M 9.878906 13.558594 L 9.878906 12.839844 L 12.050781 12.839844 L 12.050781 13.558594 Z M 10.96875 10.019531 L 11.488281 9.5 L 13.011719 11.019531 L 12.488281 11.550781 Z M 13.5 14.949219 C 13.5 14.53125 13.648438 14.171875 13.941406 13.859375 C 14.230469 13.550781 14.589844 13.390625 15 13.378906 L 17.730469 8.890625 L 18.390625 9.238281 L 16.371094 14.070313 C 16.550781 14.320313 16.628906 14.609375 16.628906 14.949219 C 16.628906 15.390625 16.480469 15.761719 16.171875 16.058594 C 15.859375 16.359375 15.488281 16.511719 15.050781 16.511719 C 14.621094 16.511719 14.25 16.359375 13.949219 16.058594 C 13.648438 15.761719 13.5 15.390625 13.5 14.949219 Z M 14.808594 10.28125 L 14.808594 8.121094 L 15.5 8.121094 L 15.5 10.289063 L 14.808594 10.289063 Z M 17.75 13.550781 L 17.75 12.808594 L 19.921875 12.808594 L 19.921875 13.550781 Z M 17.75 13.550781 "/>
</g>
</svg>

<?xml version="1.0" encoding="utf-8"?>
<!-- Generator: Adobe Illustrator 22.0.1, SVG Export Plug-In . SVG Version: 6.00 Build 0)  -->
<svg version="1.1" id="Layer_1" xmlns="http://www.w3.org/2000/svg" xmlns:xlink="http://www.w3.org/1999/xlink" x="0px" y="0px"
	 viewBox="0 0 30 30" style="enable-background:new 0 0 30 30;" xml:space="preserve">
<path d="M7.69,13.2c0-0.99,0.19-1.94,0.58-2.85c0.39-0.91,0.91-1.68,1.57-2.33s1.44-1.17,2.34-1.56c0.9-0.39,1.85-0.58,2.84-0.58
	c0.99,0,1.94,0.19,2.85,0.58c0.9,0.39,1.68,0.91,2.33,1.56c0.65,0.65,1.17,1.43,1.56,2.33s0.58,1.85,0.58,2.85
	c0,1.62-0.48,3.06-1.44,4.34c-0.96,1.27-2.2,2.14-3.71,2.61v3.29h-4.24v-3.25c-1.54-0.45-2.81-1.32-3.79-2.61S7.69,14.83,7.69,13.2z
	 M9.3,13.2c0,1.55,0.56,2.88,1.69,3.99c1.11,1.12,2.45,1.68,4.02,1.68c1.03,0,1.99-0.25,2.86-0.76c0.88-0.51,1.57-1.2,2.09-2.07
	c0.51-0.87,0.77-1.82,0.77-2.85c0-0.77-0.15-1.5-0.45-2.21s-0.71-1.31-1.22-1.82c-0.51-0.51-1.12-0.92-1.83-1.22
	c-0.71-0.3-1.44-0.45-2.21-0.45c-0.77,0-1.5,0.15-2.21,0.45s-1.31,0.71-1.82,1.22c-0.51,0.51-0.92,1.12-1.22,1.82
	C9.45,11.7,9.3,12.43,9.3,13.2z M9.88,13.56v-0.72h2.17v0.72H9.88z M10.97,10.02l0.52-0.52l1.52,1.52l-0.52,0.53L10.97,10.02z
	 M13.5,14.95c0-0.42,0.15-0.78,0.44-1.09c0.29-0.31,0.65-0.47,1.06-0.48l2.73-4.49l0.66,0.35l-2.02,4.83
	c0.18,0.25,0.26,0.54,0.26,0.88c0,0.44-0.15,0.81-0.46,1.11c-0.31,0.3-0.68,0.45-1.12,0.45c-0.43,0-0.8-0.15-1.1-0.45
	C13.65,15.76,13.5,15.39,13.5,14.95z M14.81,10.28V8.12h0.69v2.17H14.81z M17.75,13.55v-0.74h2.17v0.74H17.75z"/>
</svg>
